!! 00000] TT[WS
!!!OTL: Mopai diao
!!!ARE: Asia, China, Shanxi Qinyuan
!! Ethnic Group: Han
!! WI, 328
!!!SCT: J0396
!!!YEM: Copyright 1995, estate of Helmut Schaffrath.
**kern
*ICvox
*Ivox
*M2/4
*k[]
*C:
{8ee
8dd
8cc
8dd
=1
8ee
8gg
8ee
8dd
=2
8cc
4cc
8ee
=3
8dd
8b
8a
8g
=4
8a
4a
8cc
=5
8b
8a
8g
8a
=6
2e}
=7
{8a
8g
4a
=8
8r
4cc
8dd
=9
8ee
8b
8a
8g
=10
8a
4e
8g
=11
8a
4a
8cc
=12
8b
8a
8g
8a
=13
8cc
8b
8a
8g
=14
2e}
=15
{8ee
8dd
8cc
8ee
=16
8dd
8b
8a
8g
=17
8a
4a
8cc
=18
8b
8a
8g
8a
=19
8cc
8b
8a
8g
=20
2g}
==
!!!AGN: Xiaodiao, Muopaidiao. Xinminge, Xuanchuan
!! Neue Text. Politische Liede
!!!ONB: ESAC (Essen Associative Code) Database: CHINA
!!!AMT: simple duple
!!!AIN: vox
!!!EED: Helmut Schaffrath
!!!EEV: 1.0
*-
